X:0566
T:The Dutches of Athole's Strathspey.
M:C
L:1/8
Q:1/4=120
I: :: :: :: :|
Z:Jack Campin * www.campin.me.uk * 2009
K:D
d|:A>d``````f>d      e>d      TB2 | A>d``````fd    a>d     Tf2 |\
   g>b``````f<b      e>d      TB2 | A>d``````f>d  Te2       d2::
   a>f``````d'>f     g/f/e/d/ TB2 | a>f``````d'>f  a/f/a/b/ d'2|\
  Tb>a``````d'f      g/f/e/d/ TB2 |[AD]>d````f<d  Te2       d2::
  .D.d`````.f.d     .B.e``````.c.A| Dd```````fd    ad```````fd |\
   gb/g/    f.d'/f/ .B.e``````.c.A| D>d``````fd   Te2       d2::
  (d/e/f/g/ a)<.d    d'<e``````c<A| d/e/f/g/ a<f   d'<f`````a>f|\
   gb/g/    fd'/f/   B`e```````c`A| D>d``````f>d   e2       d2:|
<end>
<start>
